!! 00000] TT[WS
!!!OTL: weilao balujiun
!!!ARE: Asia, China, Shanxi Linxian
!! Ethnic Group: Han
!! WI, 283 (1)
!!!SCT: J0339
!!!YEM: Copyright 1995, estate of Helmut Schaffrath.
**kern
*ICvox
*Ivox
*M2/4
*k[f#]
*G:
{8dd
16dd
16dd
8gg
16ee
16dd
=1
8cc
8ee
4dd
=2
8gg
16ee
16dd
8b
16b
16a
=3
8g
8e
4d}
=4
{8dd
8dd
8ee
8dd
=5
8.g
16b
4a
=6
8a
16e
16e
8g
8e
=7
2d}
==
!!!AGN: Xiaodiao. Xinminge, Xuanchuan
!! Neue Text. Politische Liede
!!!ONB: ESAC (Essen Associative Code) Database: CHINA
!!!AMT: simple duple
!!!AIN: vox
!!!EED: Helmut Schaffrath
!!!EEV: 1.0
*-
